ui/StatusQ/src/assets/img/icons/chevron-up.svg

<svg fill="none" height="24" viewBox="0 0 24 24" width="24" xmlns="http://www.w3.org/2000/svg"><path clip-rule="evenodd" d="m6.46967 14.5303c.29289.2929.76777.2929 1.06066 0l4.11607-4.1161c.1953-.1952.5119-.1952.7072 0l4.1161 4.1161c.2929.2929.7677.2929 1.0606 0s.2929-.7677 0-1.0606l-4.6464-4.64648c-.4882-.48815-1.2796-.48815-1.7678 0l-4.64643 4.64648c-.29289.2929-.29289.7677 0 1.0606z" fill="#000" fill-rule="evenodd"/></svg>

<svg width="24" height="24" viewBox="0 0 24 24" fill="none" xmlns="http://www.w3.org/2000/svg">
<path fill-rule="evenodd" clip-rule="evenodd" d="M6.46967 14.5303C6.76256 14.8232 7.23744 14.8232 7.53033 14.5303L11.6464 10.4142C11.8417 10.219 12.1583 10.219 12.3536 10.4142L16.4697 14.5303C16.7626 14.8232 17.2374 14.8232 17.5303 14.5303C17.8232 14.2374 17.8232 13.7626 17.5303 13.4697L12.8839 8.82322C12.3957 8.33507 11.6043 8.33507 11.1161 8.82322L6.46967 13.4697C6.17678 13.7626 6.17678 14.2374 6.46967 14.5303Z" fill="black"/>
</svg>
